X:1
T:Pueblo, 87.87.87
T:Pueblo, 87.87.87
T:Mari Ruef Hofer, 1901
T:Public Domain Courtesy of the Cyber Hymnal™
C:Mari Ruef Hofer, 1901
Z:Public Domain
Z:Courtesy of the Cyber Hymnal™
%%score 1 ( 2 3 ) 4
L:1/8
Q:1/4=95
M:6/8
K:G
V:1 treble 
V:2 treble 
V:3 treble 
V:4 bass 
V:1
 B2 d A2 c | B2 A G3 | B2 d A2 c | B2 A G3 | D2 D G2 G | (AG)A B3 | B2 A (GA)B | ^cBc d3 | %8
 e2 d c2 A | d2 c B3 | (BA)G (BA)G | (DG)A G3 |] %12
V:2
 B2 d A2 c | [GB]2 [FA] [DG]3 | B2 d A2 c | [GB]2 [FA] [DG]3 | [B,D]2 [B,D] [EG]2 [EG] | %5
 [FA][EG][FA] [GB]3 | B2 A [EG][FA][GB] | [E^c][DB][Ec] [Fd]3 | [Fe]2 [Gd] [Fc]2 [FA] | %9
 [Gd]2 [Fc] [GB]3 | [GB][FA][EG] [GB][FA][EG] | DG[FA] G3 |] %12
V:3
 G3 A3 | x6 | G3 A3 | x6 | x6 | x6 | F3 x3 | x6 | x6 | x6 | x6 | D2 G3 x |] %12
V:4
 [G,D]3 [F,D]3 | [G,D]2 [D,C] [G,B,]3 | [G,D]3 [F,D]3 | [G,D]2 [D,C] [G,B,]3 | %4
 G,2 G, [E,B,]2 [E,B,] | [D,D]2 [D,D] [G,D]3 | [^D,B,]3 [E,B,]2 [E,B,] | [A,,A,]2 [A,,A,] [D,A,]3 | %8
 [CD]2 [B,D] [A,D]2 [CD] | [B,D]2 [A,D] [G,D]3 | C,3 ^C,3 | [D,B,]2 [D,C] [G,B,]3 |] %12

